papirus/22x22/apps/xfce4-systray.svg

<?xml version="1.0" encoding="UTF-8" standalone="no"?>
<svg id="svg4222" xmlns:rdf="http://www.w3.org/1999/02/22-rdf-syntax-ns#" xmlns="http://www.w3.org/2000/svg" height="22" viewBox="0 0 22 22" width="22" version="1.1" xmlns:cc="http://creativecommons.org/ns#" xmlns:dc="http://purl.org/dc/elements/1.1/">
 <metadata id="metadata4227">
  <rdf:RDF>
   <cc:Work rdf:about="">
    <dc:format>image/svg+xml</dc:format>
    <dc:type rdf:resource="http://purl.org/dc/dcmitype/StillImage"/>
    <dc:title/>
   </cc:Work>
  </rdf:RDF>
 </metadata>
 <g id="g4155" transform="translate(-1,-1)">
  <path id="rect4203" fill="#4ab3e4" d="m3 3c-0.554 0-1 0.446-1 1v1 12h20v-12-1c0-0.554-0.446-1-1-1h-18z"/>
  <path id="rect3328" fill="#253951" d="m3 21c-0.554 0-1-0.446-1-1v-3h20v3c0 0.554-0.446 1-1 1z"/>
  <path id="path3345" opacity=".1" fill="#fff" d="m3 3c-0.554 0-1 0.446-1 1v0.5c0-0.554 0.446-1 1-1h18c0.554 0 1 0.446 1 1v-0.5c0-0.554-0.446-1-1-1z"/>
  <circle id="circle4144" opacity=".2" cy="19.5" cx="13" r="1"/>
  <circle id="path4136" opacity="0.72" cy="19" cx="13" r="1" fill="#fff"/>
  <circle id="circle4146" opacity=".2" cy="19.5" cx="16" r="1"/>
  <circle id="circle4140" opacity="0.72" cy="19" cx="16" r="1" fill="#fff"/>
  <circle id="circle4148" opacity=".2" cy="19.5" cx="19" r="1"/>
  <circle id="circle4142" opacity="0.72" cy="19" cx="19" r="1" fill="#fff"/>
  <path id="path4166" opacity=".2" d="m2 20v0.5c0 0.554 0.446 1 1 1h18c0.554 0 1-0.446 1-1v-0.5c0 0.554-0.446 1-1 1h-18c-0.554 0-1-0.446-1-1z"/>
 </g>
</svg>

<?xml version="1.0" encoding="UTF-8" standalone="no"?>
<svg
   xmlns:dc="http://purl.org/dc/elements/1.1/"
   xmlns:cc="http://creativecommons.org/ns#"
   xmlns:rdf="http://www.w3.org/1999/02/22-rdf-syntax-ns#"
   xmlns:svg="http://www.w3.org/2000/svg"
   xmlns="http://www.w3.org/2000/svg"
   xmlns:sodipodi="http://sodipodi.sourceforge.net/DTD/sodipodi-0.dtd"
   xmlns:inkscape="http://www.inkscape.org/namespaces/inkscape"
   id="svg4222"
   height="22"
   width="22"
   version="1.1"
   viewBox="0 0 22 22"
   inkscape:version="0.91 r13725"
   sodipodi:docname="xfce4-systray.svg">
  <defs
     id="defs17" />
  <sodipodi:namedview
     pagecolor="#ffffff"
     bordercolor="#666666"
     borderopacity="1"
     objecttolerance="10"
     gridtolerance="10"
     guidetolerance="10"
     inkscape:pageopacity="0"
     inkscape:pageshadow="2"
     inkscape:window-width="1535"
     inkscape:window-height="876"
     id="namedview15"
     showgrid="false"
     inkscape:zoom="9.8333333"
     inkscape:cx="-6.0508475"
     inkscape:cy="12"
     inkscape:window-x="65"
     inkscape:window-y="24"
     inkscape:window-maximized="1"
     inkscape:current-layer="svg4222" />
  <metadata
     id="metadata4227">
    <rdf:RDF>
      <cc:Work
         rdf:about="">
        <dc:format>image/svg+xml</dc:format>
        <dc:type
           rdf:resource="http://purl.org/dc/dcmitype/StillImage" />
        <dc:title></dc:title>
      </cc:Work>
    </rdf:RDF>
  </metadata>
  <g
     id="g4155"
     transform="translate(-1,-1)">
    <path
       id="rect4203"
       d="M 3,3 C 2.446,3 2,3.446 2,4 L 2,5 2,17 22,17 22,5 22,4 C 22,3.446 21.554,3 21,3 L 3,3 Z"
       inkscape:connector-curvature="0"
       style="fill:#4ab3e4" />
    <path
       id="rect3328"
       d="M 3,21 C 2.446,21 2,20.554 2,20 l 0,-3 20,0 0,3 c 0,0.554 -0.446,1 -1,1 z"
       inkscape:connector-curvature="0"
       style="fill:#253951;fill-opacity:1" />
    <path
       id="path3345"
       d="M 3,3 C 2.446,3 2,3.446 2,4 l 0,0.5 c 0,-0.554 0.446,-1 1,-1 l 18,0 c 0.554,0 1,0.446 1,1 L 22,4 C 22,3.446 21.554,3 21,3 Z"
       inkscape:connector-curvature="0"
       style="opacity:0.1;fill:#ffffff" />
    <circle
       id="circle4144"
       cy="19.5"
       cx="13"
       r="1"
       style="opacity:0.2" />
    <circle
       id="path4136"
       cx="13"
       cy="19"
       r="1"
       style="opacity:0.72000002;fill:#ffffff" />
    <circle
       id="circle4146"
       cx="16"
       cy="19.5"
       r="1"
       style="opacity:0.2" />
    <circle
       id="circle4140"
       cy="19"
       cx="16"
       r="1"
       style="opacity:0.72000002;fill:#ffffff" />
    <circle
       id="circle4148"
       cy="19.5"
       cx="19"
       r="1"
       style="opacity:0.2" />
    <circle
       id="circle4142"
       cx="19"
       cy="19"
       r="1"
       style="opacity:0.72000002;fill:#ffffff" />
    <path
       id="path4166"
       d="m 2,20 0,0.5 c 0,0.554 0.446,1 1,1 l 18,0 c 0.554,0 1,-0.446 1,-1 L 22,20 c 0,0.554 -0.446,1 -1,1 L 3,21 C 2.446,21 2,20.554 2,20 Z"
       inkscape:connector-curvature="0"
       style="opacity:0.2" />
  </g>
</svg>
